shelter/assets/icons/help/icon-vitamins.svg

<svg width="60" height="60" viewBox="0 0 60 60" fill="none" xmlns="http://www.w3.org/2000/svg">
<path d="M54.3108 35.3986C51.0359 34.284 46.7048 33.6702 42.1158 33.6702C41.8289 33.6702 41.5431 33.6725 41.2586 33.6773C36.9894 33.7488 32.991 34.3536 29.9207 35.3986C29.428 35.5653 28.9424 35.7523 28.4651 35.9589V17.2325C28.4651 9.38472 22.0805 3 14.2325 3C6.38461 3 0 9.38472 0 17.2325V42.9261C0 50.7739 6.38461 57.1587 14.2325 57.1587C16.722 57.1587 19.1722 56.5062 21.3188 55.2717C22.6721 54.4934 23.8881 53.4936 24.9168 52.3257C25.6645 53.3761 27.1451 54.4856 29.9208 55.4303C33.1957 56.5448 37.5266 57.1587 42.1157 57.1587C46.7047 57.1587 51.0357 56.5448 54.3107 55.4303C59.0129 53.83 60 51.7566 60 50.299V40.5299C60 39.0723 59.0129 36.9989 54.3108 35.3986ZM26.5754 40.5299C26.5759 40.4863 26.5798 40.4428 26.5871 40.3998L26.5891 40.3882C26.6289 40.1764 26.7563 39.9305 26.9907 39.6639L26.9952 39.6589C27.0307 39.6187 27.0695 39.578 27.1099 39.5368C27.137 39.5096 27.1641 39.4823 27.193 39.4552L27.2271 39.4233C27.4235 39.2422 27.6601 39.0603 27.9332 38.8825C27.9379 38.8794 27.9418 38.8757 27.9464 38.8726C28.5871 38.4565 29.478 38.025 30.6759 37.6173C33.7141 36.5834 37.7769 36.0138 42.1158 36.0138C46.0691 36.0139 49.7904 36.488 52.719 37.3541L27.6397 41.9756C26.8868 41.4213 26.5767 40.9077 26.5754 40.5323V40.5299ZM26.1213 37.2903C25.2179 37.9825 24.7144 38.6857 24.4591 39.3382C24.3731 39.5576 24.3108 39.7855 24.2733 40.0181C24.2561 40.1239 24.2443 40.2305 24.2379 40.3375L24.2359 40.3677C24.2331 40.4224 24.2313 40.4766 24.2313 40.5298V49.3609C22.0289 52.7824 18.315 54.8149 14.2325 54.8149C7.67707 54.8149 2.34375 49.4816 2.34375 42.9261V31.2512H4.6875V37.5793C4.6875 38.2266 5.21227 38.7512 5.85938 38.7512C6.50648 38.7512 7.03125 38.2266 7.03125 37.5793V31.2512H26.1213V37.2903ZM26.1213 28.9075H7.03125V17.2325C7.03125 13.2618 10.2616 10.0312 14.2325 10.0312C18.2034 10.0312 21.4338 13.2618 21.4338 17.2325C21.4338 17.8798 21.9586 18.4044 22.6057 18.4044C23.2529 18.4044 23.7776 17.8798 23.7776 17.2325C23.7776 11.9694 19.4957 7.6875 14.2325 7.6875C8.96941 7.6875 4.6875 11.9694 4.6875 17.2325V28.9075H2.34375V17.2325C2.34375 10.6771 7.67707 5.34375 14.2325 5.34375C20.788 5.34375 26.1213 10.6771 26.1213 17.2325V28.9075ZM57.6562 50.299C57.6562 50.9987 56.5823 52.1814 53.5556 53.2116C50.5174 54.2455 46.4546 54.815 42.1158 54.815C37.7769 54.815 33.7141 54.2456 30.6759 53.2116C27.6492 52.1815 26.5753 50.9988 26.5753 50.299V49.6986L26.5754 49.697V44.0932C27.3962 44.6393 28.4844 45.1724 29.9208 45.6612C33.1957 46.7757 37.5267 47.3896 42.1158 47.3896C46.7048 47.3896 51.0359 46.7757 54.3108 45.6612C55.7471 45.1723 56.8355 44.6393 57.6562 44.0931V50.299ZM53.5556 43.4423C50.5174 44.4763 46.4548 45.0458 42.1158 45.0458C38.1056 45.0458 34.3334 44.5584 31.386 43.6685L56.525 39.036C57.3278 39.6098 57.6562 40.1435 57.6562 40.5299C57.6562 41.2296 56.5823 42.4123 53.5556 43.4423Z" fill="#F1CDB3"/>
<path d="M6.68777 41.402C6.63386 41.3481 6.57421 41.2989 6.50976 41.2567C6.44592 41.2141 6.37801 41.178 6.30702 41.1489C6.23671 41.1196 6.163 41.0973 6.088 41.0821C5.93718 41.0516 5.78179 41.0516 5.63097 41.0821C5.55597 41.0973 5.48214 41.1196 5.41066 41.1489C5.34023 41.1782 5.27238 41.2145 5.2091 41.2567C5.14452 41.2989 5.08476 41.3481 5.03085 41.402C4.97695 41.4559 4.92773 41.5157 4.88554 41.5802C4.84218 41.6434 4.80702 41.7114 4.77773 41.7829C4.74843 41.8532 4.72499 41.927 4.71105 42.002C4.6957 42.077 4.68761 42.1544 4.68761 42.2305C4.68761 42.3079 4.6957 42.3841 4.71105 42.4602C4.72499 42.5352 4.74843 42.6091 4.77773 42.6794C4.80702 42.7497 4.84218 42.8177 4.88554 42.8821C4.92773 42.9454 4.97695 43.0052 5.03085 43.0602C5.19533 43.2232 5.40397 43.3345 5.63097 43.3802C5.70597 43.3954 5.78331 43.4024 5.85949 43.4024C6.01311 43.4028 6.16526 43.3725 6.30702 43.3134C6.37801 43.2842 6.44592 43.2481 6.50976 43.2055C6.57421 43.1622 6.63398 43.1141 6.68788 43.0602C6.74191 43.0052 6.79113 42.9454 6.8332 42.8821C6.87538 42.8177 6.91171 42.7497 6.94101 42.6794C6.97031 42.6091 6.99374 42.5352 7.00898 42.4602C7.02421 42.3841 7.03124 42.3079 7.03124 42.2305C7.03124 41.9223 6.90585 41.62 6.68777 41.402Z" fill="#F1CDB3"/>
</svg>

<svg width="60" height="60" fill="none" xmlns="http://www.w3.org/2000/svg"><path d="M54.31 35.399c-3.274-1.115-7.605-1.729-12.194-1.729-.287 0-.573.002-.857.007-4.27.072-8.268.677-11.338 1.722-.493.166-.979.353-1.456.56V17.232C28.465 9.386 22.081 3 14.233 3 6.385 3 0 9.385 0 17.233v25.693C0 50.774 6.385 57.16 14.232 57.16c2.49 0 4.94-.653 7.087-1.887a14.31 14.31 0 0 0 3.598-2.946c.747 1.05 2.228 2.16 5.004 3.104 3.275 1.115 7.606 1.729 12.195 1.729s8.92-.614 12.195-1.729C59.013 53.83 60 51.757 60 50.3v-9.77c0-1.457-.987-3.53-5.69-5.13zm-27.735 5.13c0-.043.005-.086.012-.13l.002-.01c.04-.213.167-.459.402-.725l.004-.005c.036-.04.075-.081.115-.122.027-.027.054-.055.083-.082l.034-.032a5.35 5.35 0 0 1 .706-.54l.013-.01c.641-.416 1.532-.848 2.73-1.256 3.038-1.034 7.1-1.603 11.44-1.603 3.953 0 7.674.474 10.603 1.34l-25.08 4.622c-.752-.555-1.062-1.068-1.064-1.444v-.002zm-.454-3.239c-.903.693-1.407 1.396-1.662 2.048a3.304 3.304 0 0 0-.221 1l-.002.03a3.18 3.18 0 0 0-.005.162v8.83a11.808 11.808 0 0 1-9.999 5.455c-6.555 0-11.888-5.333-11.888-11.889V31.251h2.344v6.328a1.172 1.172 0 0 0 2.343 0v-6.328h19.09v6.04zm0-8.383H7.031V17.233c0-3.971 3.23-7.202 7.202-7.202 3.97 0 7.2 3.23 7.2 7.202a1.172 1.172 0 0 0 2.345 0c0-5.264-4.282-9.546-9.545-9.546-5.264 0-9.546 4.282-9.546 9.546v11.674H2.345V17.233c0-6.556 5.333-11.89 11.889-11.89 6.555 0 11.888 5.334 11.888 11.89v11.674zM57.656 50.3c0 .7-1.074 1.882-4.1 2.913-3.039 1.033-7.101 1.603-11.44 1.603-4.34 0-8.402-.57-11.44-1.603-3.027-1.03-4.1-2.213-4.1-2.913v-6.206c.82.546 1.908 1.08 3.345 1.568 3.275 1.115 7.606 1.729 12.195 1.729s8.92-.614 12.195-1.729c1.436-.489 2.525-1.022 3.345-1.568V50.3zm-4.1-6.857c-3.039 1.034-7.101 1.604-11.44 1.604-4.01 0-7.783-.488-10.73-1.377l25.139-4.633c.803.574 1.131 1.108 1.131 1.494 0 .7-1.074 1.882-4.1 2.912z" fill="#F1CDB3"/><path d="M6.688 41.402a1.122 1.122 0 0 0-.381-.253 1.18 1.18 0 0 0-.676-.067 1.22 1.22 0 0 0-.422.175 1.118 1.118 0 0 0-.323.323 1.08 1.08 0 0 0-.108.203 1.146 1.146 0 0 0 0 .897 1.16 1.16 0 0 0 .253.38 1.185 1.185 0 0 0 .828.342 1.155 1.155 0 0 0 .65-.197 1.186 1.186 0 0 0 .324-.323 1.245 1.245 0 0 0 .176-.422 1.18 1.18 0 0 0-.321-1.058z" fill="#F1CDB3"/></svg>
